frontend/src/assets/icons/checkmark.svg

<svg width="214" height="214" viewBox="0 0 214 214" fill="none" xmlns="http://www.w3.org/2000/svg">
<path d="M155.627 59.52L85.3333 129.813L56.5 101.087L42.3333 117L85.3333 160L170.667 74.6667L155.627 59.52ZM106.667 0C47.7867 0 0 47.7867 0 106.667C0 165.547 47.7867 213.333 106.667 213.333C165.547 213.333 213.333 165.547 213.333 106.667C213.333 47.7867 165.547 0 106.667 0ZM106.667 192C59.52 192 21.3333 153.813 21.3333 106.667C21.3333 59.52 59.52 21.3333 106.667 21.3333C153.813 21.3333 192 59.52 192 106.667C192 153.813 153.813 192 106.667 192Z" fill="#B7CFB9"/>
</svg>

<svg width="214" height="214" fill="none" xmlns="http://www.w3.org/2000/svg"><path d="m155.627 59.52-70.294 70.293L56.5 101.087 42.333 117l43 43 85.334-85.333-15.04-15.147zM106.667 0C47.787 0 0 47.787 0 106.667s47.787 106.666 106.667 106.666 106.666-47.786 106.666-106.666C213.333 47.787 165.547 0 106.667 0zm0 192c-47.147 0-85.334-38.187-85.334-85.333 0-47.147 38.187-85.334 85.334-85.334 47.146 0 85.333 38.187 85.333 85.334C192 153.813 153.813 192 106.667 192z" fill="#B7CFB9"/></svg>
